X:11
T:score106
L:1/8
Q:1/4=96
M:4/4
I:linebreak $
K:C
 c2 ed c2 gf | e2 ag gf e2 | df/d/ cB c2 ed |$ c2 gf e2 ag | gf e2 df/d/ cB | c2 z e c2 z e |$ %6
 c2 ag gf e2 | df/d/ cB c2 z2 |] %8
